symbols/web/next_week/materialsymbolsoutlined/next_week_wght100gradN25_24px.svg

<svg xmlns="http://www.w3.org/2000/svg" height="24" width="24"><path d="m11.025 16.525 3.025-3.05-3.025-3.025-.475.45 2.575 2.575-2.575 2.575Zm-6.175 3.05q-.6 0-1.012-.412-.413-.413-.413-1.013V8.825q0-.6.413-1.013Q4.25 7.4 4.875 7.4h4.5V6.2q0-.6.413-1.013.412-.412 1.012-.412h2.4q.6 0 1.013.412.412.413.412 1.013v1.2h4.525q.6 0 1.013.412.412.413.412 1.013v9.325q0 .6-.412 1.013-.413.412-1.013.412ZM10.025 7.4H14V6.2q0-.3-.25-.55-.25-.25-.55-.25h-2.375q-.3 0-.55.25-.25.25-.25.55Zm-5.15 11.55H19.15q.3 0 .55-.25.25-.25.25-.55V8.825q0-.3-.25-.55-.25-.25-.55-.25H4.875q-.3 0-.55.25-.25.25-.25.55v9.325q0 .3.25.55.25.25.55.25Zm-.8 0V8.025 18.95Z"/></svg>

<svg xmlns="http://www.w3.org/2000/svg" height="24" width="24"><path d="M11.025 16.525 14.05 13.475 11.025 10.45 10.55 10.9 13.125 13.475 10.55 16.05ZM4.85 19.575Q4.25 19.575 3.838 19.163Q3.425 18.75 3.425 18.15V8.825Q3.425 8.225 3.838 7.812Q4.25 7.4 4.875 7.4H9.375V6.2Q9.375 5.6 9.788 5.187Q10.2 4.775 10.8 4.775H13.2Q13.8 4.775 14.213 5.187Q14.625 5.6 14.625 6.2V7.4H19.15Q19.75 7.4 20.163 7.812Q20.575 8.225 20.575 8.825V18.15Q20.575 18.75 20.163 19.163Q19.75 19.575 19.15 19.575ZM10.025 7.4H14V6.2Q14 5.9 13.75 5.65Q13.5 5.4 13.2 5.4H10.825Q10.525 5.4 10.275 5.65Q10.025 5.9 10.025 6.2ZM4.875 18.95H19.15Q19.45 18.95 19.7 18.7Q19.95 18.45 19.95 18.15V8.825Q19.95 8.525 19.7 8.275Q19.45 8.025 19.15 8.025H4.875Q4.575 8.025 4.325 8.275Q4.075 8.525 4.075 8.825V18.15Q4.075 18.45 4.325 18.7Q4.575 18.95 4.875 18.95ZM4.075 18.95Q4.075 18.95 4.075 18.725Q4.075 18.5 4.075 18.15V8.825Q4.075 8.475 4.075 8.25Q4.075 8.025 4.075 8.025Q4.075 8.025 4.075 8.25Q4.075 8.475 4.075 8.825V18.15Q4.075 18.5 4.075 18.725Q4.075 18.95 4.075 18.95Z"/></svg>
